X:1
T: Kiss the Lass you like best
C:
R:Reel
Q: 232
K:D
M:4/4
L:1/8
|:d|A2 FA BE Ed|A2 FA de fd|e1/2f1/2g f1/2g1/2a eE EF|Ag fe dD Dd|
A2 FA BE Ed|A2 FA de fd|e1/2f1/2g f1/2g1/2a eE EF|Ag fe dD Df|
ab af be ef|ab af de fd|e1/2f1/2g f1/2g1/2a eE EF|Ag fe dD Df|
ab af be ef|ab af de fd|e1/2f1/2g f1/2g1/2a eE EF|Ag fe dD D:|
